!!!COM: Music21
!!!OTL: Alalá
!!!OMV: pezas_alalas_alala-27_alala-partitura.musicxml
**kern
*I"Bagpipes
*I'Bag
*clefG^2
*k[b-]
*F:
*M4/4
=1
!LO:TX:a:t=Ad libitum
*MM100
!LO:TX:a:t=[quarter]=100
2gg
4gg
4ff#X
=
2gg
4bb-
4aa
=
2gg
[2dd
=
1dd;]
=
2gg
4gg
4ff#X
=
2gg
4bb-
4aa
=
4.gg
16aaLL
16ggJJ
[2ff
=
1ff;]
=
2gg
4ff
4ee-X
=
4dd
4dd
4ee-X
4ff
=
4gg
4gg
4ee-X
4dd
!!linebreak:original
=
2cc
2cc
!!linebreak:original
=
2ff
4ff
4ee-X
=
2gg
4ff
4ee-X
=
[1dd
=
1dd;]
=||
*M4/4
!LO:TX:a:t=Ad libitum
*MM100
!LO:TX:a:t=[quarter]=100
2gg
4gg
4ff#X
=
2gg
4bb-
4aa
=
2gg
[2dd
=
1dd;]
=
2gg
4gg
4ff#X
=
2gg
4bb-
4aa
=
4.gg
16aaLL
16ggJJ
[2ff
=
1ff;]
!!linebreak:original
=
2gg
4ff
4ee-X
=
4dd
4dd
4ee-X
4ff
=
4gg
4gg
4ee-X
4dd
=
2cc
2cc
=
!LO:TX:a:t=ritardando
*MM72
!LO:TX:a:t=[quarter]=72
2ff
4ff
4ee-X
=
2gg
4ff
4ee-X
=
[1dd
=
1dd;]
==
*-
